X:560
T:Reel 560
M:4/4
K:Amaj
L:1/8
E|E3E CEAF|EFEC B,A,F,2|CEEF ECA,C|B,DcA BcdB|ceEC DEFD|ECAC  (3FGA EA|cE (3FGA EACA,|B,E,E,E, E,2|CD|EAGA BdcA|E,ACE FECA|EAcA Bcdc|BAGA FAEF|EAcA BcdB| (3cde cA BAcA|EAcA BdcA|BAGB AFEC|
